X:7698
T:J'avais une bonne amie
R:bourree
C:trad.
A:Massif Central
O:France
M:3/8
L:1/8
Q:1/4=110
K:G
D|GBG/2B/2|dBd|cAc|BGD|GBG/2B/2|dBd|cAF|G2 D|
GBG/2B/2|dBd|cAc|BGD|GBG/2B/2|dBd|cAF|G2 B/2c/2|
dcA/2c/2|BGB|AFA|BGB/2c/2|dcA/2c/2|BGB|AFD|G2B/2c/2|
dcA/2c/2|BGB|AFA|BGB/2c/2|dcA/2c/2|BGB|AFD|G2||
